X:255
T:Sheila Coyle's
R:reel
M:4/4
L:1/8
K:Dmaj
FA A2 FADF|ADFA BAGF|GBBA B3A|ABdf edBA|
FA A2 FADF|ADFA BAGF|GB B2 AFDF|EFGE FDD2:|
|:dffe f3e|dcdB AFDF|Beed e3d|B3A BAFA|
dffe fgfe|dcdB AFDF|GB B2 AFDF|EFGE FDD2:|

